X:207
T:The Day is Surely Drawing Near
%%stretchlast false
M:4/4
L:1/4
K:F clef=C1
"^i"[F,c] "^I¹"[A,Acf] "^i"[F,Ff] "^iii¹"[Ccea] | "^v"[Dcdg] "^vi"[G,Adf] "^V7"[CBeg] "^i"[F,cfg] | "^I"[F,cfa] "^IV"[B,cda] [B,Bdf] "^iv"[FBf] | "^vi7"[Dcfa] "^viiø7"[Edgb] "^i"[Fcfc'] "^I²"[Ccfa] | "^V"[Cceg] "^i"[F,cg] "^I"[F,Acf] [F,Acf] | "^iii"[A,c] "^I"[F,Af] "^i7²"[CFef] "^vi7"[Dcda] | "^v"[G,cdg] "^Imaj7²"[CAef] "^ii7³"[F,Bfg] [F,cfg] | "^IV"[B,cda]2 "^iv"[FBf] "^IV¹"[DBf] | "^iii7²"[Ecga] "^IV²"[Fdfb] "^i"[Ccfc'] "^iii¹"[Ccea] | "^i"[F,cg]2 "^I"[F,Acf] [FAf] | "^V"[Ce] "^vi"[DFda] "^iii"[A,c_da] "^vi"[F,cdg] | "^II"[G,A=Bf] "^iii¹"[CAce] "^I²"[CAcf] "^v"[CGcd] | "^V"[CEc] "^iii"[A,Ec] "^V"[B,Ecd] "^i7"[F,Ec] | "^i"[CFcf] "^IVmaj7¹"[DABf] "^I²"[CAcf] "^V"[F,Gce] | "^i"[F,Fcf] "^viiø7²"[B,Edg] "^IVmaj7"[B,Fda] "^I"[Fca] | "^vi"[DFdf] "^i7²"[CFef] "^I"[F,Fca] [CFcb] | [CGcc'] [F,FAa] [F,FAg] [F,EAg] | [F,FAf]4 |]
